X:123
T: Am Bodensee
N: A0485A
O: Europa, Mitteleuropa, Deutschland
N: Ott, 1534 No. 88.
R: Romanze, Ballade, Lied
M: 4/2
L: 1/2
K: F
F2 | FGA2d2 | cBG2
d2 | c2cA2F | GAB2z
c | BAGF | G2C2z
C | FGA2d2 | cAF2z
A | Bdc2BA | G2F2

